assets/svg/padlock_icon.svg

<svg fill="none" height="30" viewBox="0 0 22 30" width="22" xmlns="http://www.w3.org/2000/svg"><g fill="#000"><path d="m20.7037 10.3959h-1.9264v-1.89856c0-4.37307-3.5576-7.930934-7.9309-7.930934-3.70746 0-6.96826 2.633224-7.75279 6.261064-.11646.53979.22625 1.07262.76677 1.18947.53853.1174 1.07261-.22594 1.18947-.76635.58688-2.71333 3.02479-4.68293 5.79675-4.68293 3.2696 0 5.9296 2.65979 5.9296 5.9296v1.89854l-15.47969-.0001c-.552612 0-1.000612.448-1.000612 1.0006v17.0344c0 .5526.448027 1.0006 1.000612 1.0006h19.40719c.5526 0 1.0006-.448 1.0006-1.0006l-.0001-17.0344c.0003-.5523-.4479-1.0006-1.0003-1.0006zm-1.0006 17.0346h-17.40616v-15.0333h15.28746c.0624.0122.1264.0195.1923.0195s.1299-.0074.1923-.0195h1.734z"/><path d="m11.0586 14.168c-1.93947 0-3.51734 1.5779-3.51734 3.5173 0 1.5597 1.02115 2.8837 2.42947 3.3435v3.1485c0 .5526.44807 1.0006 1.00057 1.0006.5526 0 1.0007-.448 1.0007-1.0006v-3.0987c1.4976-.4035 2.6044-1.7695 2.6044-3.3928 0-1.9398-1.5779-3.5176-3.5178-3.5176zm0 5.0336c-.8361 0-1.51614-.6804-1.51614-1.5162 0-.8361.68034-1.5161 1.51614-1.5161.8361 0 1.5161.6803 1.5161 1.5161.0003.8362-.68 1.5162-1.5161 1.5162z"/></g></svg>

<svg width="22" height="30" viewBox="0 0 22 30" fill="none" xmlns="http://www.w3.org/2000/svg">
<path d="M20.7037 10.3959H18.7773V8.49734C18.7773 4.12427 15.2197 0.566406 10.8464 0.566406C7.13894 0.566406 3.87814 3.19963 3.09361 6.82747C2.97715 7.36726 3.31986 7.90009 3.86038 8.01694C4.39891 8.13434 4.93299 7.791 5.04985 7.25059C5.63673 4.53726 8.07464 2.56766 10.8466 2.56766C14.1162 2.56766 16.7762 5.22745 16.7762 8.49726V10.3958L1.29651 10.3957C0.743898 10.3957 0.295898 10.8437 0.295898 11.3963V28.4307C0.295898 28.9833 0.743925 29.4313 1.29651 29.4313H20.7037C21.2563 29.4313 21.7043 28.9833 21.7043 28.4307L21.7042 11.3963C21.7045 10.844 21.2563 10.3957 20.7039 10.3957L20.7037 10.3959ZM19.7031 27.4305H2.29694V12.3972H17.5844C17.6468 12.4094 17.7108 12.4167 17.7767 12.4167C17.8426 12.4167 17.9066 12.4093 17.969 12.3972H19.703L19.7031 27.4305Z" fill="black"/>
<path d="M11.0586 14.168C9.11913 14.168 7.54126 15.7459 7.54126 17.6853C7.54126 19.245 8.56241 20.569 9.97073 21.0288V24.1773C9.97073 24.7299 10.4188 25.1779 10.9713 25.1779C11.5239 25.1779 11.972 24.7299 11.972 24.1773V21.0786C13.4696 20.6751 14.5764 19.3091 14.5764 17.6858C14.5764 15.746 12.9985 14.1682 11.0586 14.1682L11.0586 14.168ZM11.0586 19.2016C10.2225 19.2016 9.54246 18.5212 9.54246 17.6854C9.54246 16.8493 10.2228 16.1693 11.0586 16.1693C11.8947 16.1693 12.5747 16.8496 12.5747 17.6854C12.575 18.5216 11.8947 19.2016 11.0586 19.2016Z" fill="black"/>
</svg>
